!!!COM: Music21
!!!OTL: Danza da Cruz
!!!OMV: pezas_polca_danza-da-cruz_danza-da-cruz-partitura.musicxml
**kern
*part1
*staff1
*I"Bagpipes
*I'Bag
*clefG^2
*k[]
*M2/4
=1
!LO:TX:a:t=Andante
*MM96
!LO:TX:a:t=[quarter]=96
4.r
8gg
=||
8cccL
8ggJ
8aaL
8eeJ
=
[4ff
16ffLL]
16dd
16ee
16ffJJ
=
8ggL
[8ggJ
16ggLL]
16ff
16ee
16ddJJ
=
4ee
8ccL
8ggJ
=
8cccL
8ggJ
8aaL
8eeJ
=
[4ff
16ffLL]
16dd
16ee
16ffJJ
!!linebreak:original
=
8ggL
[8ggJ
16ggLL]
16ff
16ee
16ddJJ
!!linebreak:original
=
4.cc
8gg
=||
8cccL
8ggJ
8aaL
8eeJ
=
[4ff
16ffLL]
16dd
16ee
16ffJJ
=
8ggL
[8ggJ
16ggLL]
16ff
16ee
16ddJJ
=
4ee
8ccL
8ggJ
=
8cccL
8ggJ
8aaL
8eeJ
=
[4ff
16ffLL]
16dd
16ee
16ffJJ
=
8ggL
[8ggJ
16ggLL]
16ff
16ee
16ddJJ
!!linebreak:original
=
2cc
=||
8ggL
16ffL
16ggJJ
16bbLL
16aa
16gg
16ffJJ
=
8ggL
16ffL
16ggJJ
16bbLL
16aa
16gg
16aaJJ
=
8ffL
16ddL
16ffJJ
16bbLL
16aa
16gg
16ffJJ
=
8ggL
8ggJ
4gg
=
8ggL
16ffL
16ggJJ
16bbLL
16aa
16gg
16ffJJ
!!linebreak:original
=
8ggL
16ffL
16ggJJ
16bbLL
16aa
16gg
16aaJJ
=
8ffL
16ddL
16ffJJ
16bbLL
16aa
16gg
16ffJJ
=
2ee
=||
8ggL
16ffL
16ggJJ
16bbLL
16aa
16gg
16ffJJ
=
8ggL
16ffL
16ggJJ
16bbLL
16aa
16gg
16aaJJ
=
8ffL
16ddL
16ffJJ
16bbLL
16aa
16gg
16ffJJ
=
8ggL
8ggJ
4gg
!!pagebreak:original
=
8ggL
16ffL
16ggJJ
16bbLL
16aa
16gg
16ffJJ
!!linebreak:original
=
8ggL
16ffL
16ggJJ
16bbLL
16aa
16gg
16aaJJ
=
8ffL
16ddL
16ffJJ
16bbLL
16aa
16gg
16ffJJ
=
4.ee
8gg
==
*-
!!!system-decoration: s1,s2
